collections/remixicon/finance/copper-coin-line.svg

<svg viewBox="0 0 24 24" xmlns="http://www.w3.org/2000/svg" width="20" height="20"><path d="M12.005 22.003c-5.523 0-10-4.477-10-10s4.477-10 10-10 10 4.477 10 10-4.477 10-10 10zm0-2a8 8 0 100-16 8 8 0 000 16zm0-12.95l4.95 4.95-4.95 4.95-4.95-4.95 4.95-4.95zm0 2.829l-2.121 2.12 2.12 2.122 2.122-2.121-2.121-2.121z"/></svg>

<svg xmlns="http://www.w3.org/2000/svg" viewBox="0 0 24 24" width="20" height="20"><path fill="none" d="M0 0h24v24H0z"/><path d="M12 22C6.477 22 2 17.523 2 12S6.477 2 12 2s10 4.477 10 10-4.477 10-10 10zm0-2a8 8 0 100-16 8 8 0 000 16zm0-12.95L16.95 12 12 16.95 7.05 12 12 7.05zm0 2.829L9.879 12 12 14.121 14.121 12 12 9.879z"/></svg>
